X: 4587
T: Bould Thady Quill, The
R: jig
M: 6/8
K: Cmajor
E/F/|:GAF GED|CDB, CEG/A/|cBc AGE|1 EDC D2E/F/:|2 DCB, C2E/F/||
|:GAB cBc|dcB AGA/B/|cBc AGE|EDC D2E/F/|
GAF GED|CDB, CEG/A/|cBc AGE|1 DCB, C2E/F/:|2 DCB, C3||

